packages/ui-components/style/icons/jupyter.svg

<svg width="189" height="51" viewBox="0 0 189 51" version="2.0" xmlns="http://www.w3.org/2000/svg" xmlns:xlink="http://www.w3.org/1999/xlink" xmlns:figma="http://www.figma.com/figma/ns">
<title>logo.svg</title>
<desc>Created using Figma 0.90</desc>
<g id="Canvas" transform="translate(-1638 -2093)" figma:type="canvas">
<g id="logo" style="mix-blend-mode:normal;" figma:type="group">
<g id="Group" style="mix-blend-mode:normal;" figma:type="group">
<g id="g" style="mix-blend-mode:normal;" figma:type="group">
<g id="path" style="mix-blend-mode:normal;" figma:type="group">
<g id="path0 fill" style="mix-blend-mode:normal;" figma:type="vector">
<use xlink:href="#path0_fill" transform="translate(1688.87 2106.23)" fill="#4E4E4E" style="mix-blend-mode:normal;"/>
</g>
</g>
<g id="path" style="mix-blend-mode:normal;" figma:type="group">
<g id="path1 fill" style="mix-blend-mode:normal;" figma:type="vector">
<use xlink:href="#path1_fill" transform="translate(1705.38 2106.19)" fill="#4E4E4E" style="mix-blend-mode:normal;"/>
</g>
</g>
<g id="path" style="mix-blend-mode:normal;" figma:type="group">
<g id="path2 fill" style="mix-blend-mode:normal;" figma:type="vector">
<use xlink:href="#path2_fill" transform="translate(1730.18 2105.67)" fill="#4E4E4E" style="mix-blend-mode:normal;"/>
</g>
</g>
<g id="path" style="mix-blend-mode:normal;" figma:type="group">
<g id="path3 fill" style="mix-blend-mode:normal;" figma:type="vector">
<use xlink:href="#path3_fill" transform="translate(1752.94 2106.21)" fill="#4E4E4E" style="mix-blend-mode:normal;"/>
</g>
</g>
<g id="path" style="mix-blend-mode:normal;" figma:type="group">
<g id="path4 fill" style="mix-blend-mode:normal;" figma:type="vector">
<use xlink:href="#path4_fill" transform="translate(1775.8 2100.04)" fill="#4E4E4E" style="mix-blend-mode:normal;"/>
</g>
</g>
<g id="path" style="mix-blend-mode:normal;" figma:type="group">
<g id="path5 fill" style="mix-blend-mode:normal;" figma:type="vector">
<use xlink:href="#path5_fill" transform="translate(1791.75 2105.71)" fill="#4E4E4E" style="mix-blend-mode:normal;"/>
</g>
</g>
<g id="path" style="mix-blend-mode:normal;" figma:type="group">
<g id="path6 fill" style="mix-blend-mode:normal;" figma:type="vector">
<use xlink:href="#path6_fill" transform="translate(1815.77 2105.72)" fill="#4E4E4E" style="mix-blend-mode:normal;"/>
</g>
</g>
</g>
</g>
<g id="g" style="mix-blend-mode:normal;" figma:type="group">
<g id="path" style="mix-blend-mode:normal;" figma:type="group">
<g id="path7 fill" style="mix-blend-mode:normal;" figma:type="vector">
<use xlink:href="#path7_fill" transform="translate(1669.3 2093.31)" fill="#767677" style="mix-blend-mode:normal;"/>
</g>
</g>
<g id="path" style="mix-blend-mode:normal;" figma:type="group">
<g id="path8 fill" style="mix-blend-mode:normal;" figma:type="vector">
<use xlink:href="#path8_fill" transform="translate(1639.74 2123.98)" fill="#F37726" style="mix-blend-mode:normal;"/>
</g>
</g>
<g id="path" style="mix-blend-mode:normal;" figma:type="group">
<g id="path9 fill" style="mix-blend-mode:normal;" figma:type="vector">
<use xlink:href="#path9_fill" transform="translate(1639.73 2097.48)" fill="#F37726" style="mix-blend-mode:normal;"/>
</g>
</g>
<g id="path" style="mix-blend-mode:normal;" figma:type="group">
<g id="path10 fill" style="mix-blend-mode:normal;" figma:type="vector">
<use xlink:href="#path10_fill" transform="translate(1639.8 2135.81)" fill="#989798" style="mix-blend-mode:normal;"/>
</g>
</g>
<g id="path" style="mix-blend-mode:normal;" figma:type="group">
<g id="path11 fill" style="mix-blend-mode:normal;" figma:type="vector">
<use xlink:href="#path11_fill" transform="translate(1638.36 2098.06)" fill="#6F7070" style="mix-blend-mode:normal;"/>
</g>
</g>
</g>
</g>
</g>
<defs>
<path id="path0_fill" d="M 5.62592 17.9276C 5.62592 23.0737 5.23342 24.7539 4.18673 25.9942C 3.04416 27.0501 1.54971 27.6341 0 27.6304L 0.392506 30.6916C 2.79452 30.7249 5.12302 29.8564 6.92556 28.255C 8.80086 26.3021 9.45504 23.6015 9.45504 19.4583L 9.45504 0L 5.6172 0L 5.6172 17.954L 5.62592 17.9276Z"/>
<path id="path1_fill" d="M 17.7413 15.6229C 17.7413 17.8397 17.7413 19.7925 17.9157 21.4727L 14.5576 21.4727L 14.3396 17.954L 14.2523 17.954C 13.5454 19.1838 12.5262 20.2013 11.2997 20.9017C 10.0732 21.6022 8.68377 21.9602 7.27445 21.9389C 3.95995 21.9389 0 20.074 0 12.5441L 0 0L 3.83784 0L 3.83784 11.9019C 3.83784 15.9836 5.05897 18.7281 8.53919 18.7281C 9.63092 18.708 10.6925 18.3634 11.5908 17.7374C 12.4892 17.1115 13.1844 16.2321 13.5894 15.2095C 13.8222 14.57 13.9404 13.8938 13.9383 13.2126L 13.9383 0.0175934L 17.7762 0.0175934L 17.7762 15.6229L 17.7413 15.6229Z"/>
<path id="path2_fill" d="M 0.174447 7.53632C 0.174447 4.79175 0.0872236 2.57499 0 0.498968L 3.44533 0.498968L 3.61978 4.17598L 3.707 4.17598C 4.46074 2.85853 5.55705 1.77379 6.87754 1.03893C 8.19802 0.304077 9.69248 -0.0529711 11.1995 0.0063534C 16.2934 0.0063534 20.1312 4.4047 20.1312 10.9142C 20.1312 18.6289 15.5171 22.4379 10.5366 22.4379C 9.25812 22.492 7.98766 22.2098 6.84994 21.6192C 5.71222 21.0285 4.74636 20.1496 4.04718 19.0688L 3.95995 19.0688L 3.95995 30.7244L 0.165725 30.7244L 0.165725 7.50113L 0.174447 7.53632ZM 3.96868 13.2542C 3.97869 13.7891 4.03708 14.3221 4.14312 14.8464C 4.45574 16.1467 5.19222 17.3035 6.23449 18.1313C 7.27677 18.9592 8.56446 19.4101 9.89116 19.4118C 13.9471 19.4118 16.2934 16.0427 16.2934 11.1254C 16.2934 6.82378 14.0692 3.14677 10.022 3.14677C 8.66089 3.18518 7.35158 3.68134 6.30219 4.55638C 5.25279 5.43143 4.52354 6.63513 4.23035 7.97615C 4.07662 8.49357 3.98869 9.02858 3.96868 9.56835L 3.96868 13.2454L 3.96868 13.2542Z"/>
<path id="path3_fill" d="M 4.16057 0L 8.7747 12.676C 9.25443 14.0923 9.77777 15.7813 10.1267 17.0744L 10.2139 17.0744C 10.6064 15.7901 11.0425 14.1451 11.5659 12.5969L 15.7526 0.00879669L 19.8085 0.00879669L 14.0604 15.3062C 11.3129 22.6603 9.44632 26.434 6.82961 28.7388C 5.50738 29.9791 3.88672 30.8494 2.12826 31.2634L 1.1688 27.9823C 2.39912 27.5689 3.53918 26.9208 4.52691 26.0734C 5.92259 24.8972 7.02752 23.4094 7.75418 21.7278C 7.90932 21.4374 8.01266 21.1218 8.05946 20.7954C 8.02501 20.4436 7.93674 20.0994 7.79779 19.7749L 0 0.00879669L 4.18673 0.00879669L 4.16057 0Z"/>
<path id="path4_fill" d="M 7.0215 0L 7.0215 6.15768L 12.5079 6.15768L 12.5079 9.13096L 7.0215 9.13096L 7.0215 20.6898C 7.0215 23.3288 7.7629 24.8594 9.89988 24.8594C 10.6496 24.8712 11.3975 24.7824 12.1241 24.5955L 12.2985 27.5248C 11.207 27.9125 10.0534 28.0915 8.89681 28.0526C 8.1298 28.1 7.36177 27.9782 6.64622 27.6956C 5.93068 27.413 5.28484 26.9765 4.75369 26.4164C 3.66339 25.2641 3.27089 23.3552 3.27089 20.8306L 3.27089 9.13096L 0 9.13096L 0 6.15768L 3.27089 6.15768L 3.27089 1.01162L 7.0215 0Z"/>
<path id="path5_fill" d="M 3.6285 11.9283C 3.71573 17.2063 7.03022 19.3791 10.8593 19.3791C 12.8612 19.4425 14.8527 19.0642 16.6946 18.2707L 17.3488 21.0593C 15.1419 21.994 12.7638 22.4467 10.3709 22.3876C 3.88145 22.3876 0 18.042 0 11.5676C 0 5.09328 3.75062 0 9.89116 0C 16.7731 0 18.6135 6.15768 18.6135 10.1074C 18.607 10.7165 18.5634 11.3246 18.4827 11.9283L 3.65467 11.9283L 3.6285 11.9283ZM 14.8716 9.13976C 14.9152 6.65909 13.8686 2.79735 9.55971 2.79735C 5.67826 2.79735 3.98612 6.43038 3.68084 9.13976L 14.8803 9.13976L 14.8716 9.13976Z"/>
<path id="path6_fill" d="M 0.174447 7.17854C 0.174447 4.65389 0.130835 2.48111 0 0.484261L 3.35811 0.484261L 3.48894 4.69787L 3.66339 4.69787C 4.62285 1.81256 6.93428 0.00044283 9.49865 0.00044283C 9.8663 -0.0049786 10.233 0.0394012 10.5889 0.132393L 10.5889 3.80941C 10.1593 3.71494 9.72029 3.67067 9.28059 3.67746C 6.57666 3.67746 4.66646 5.76227 4.14312 8.68277C 4.03516 9.28384 3.97681 9.89289 3.96867 10.5037L 3.96867 21.9394L 0.174447 21.9394L 0.174447 7.17854Z"/>
<path id="path7_fill" d="M 5.89353 2.844C 5.91889 3.43165 5.77085 4.01367 5.46815 4.51645C 5.16545 5.01922 4.72168 5.42015 4.19299 5.66851C 3.6643 5.91688 3.07444 6.00151 2.49805 5.91171C 1.92166 5.8219 1.38463 5.5617 0.954898 5.16401C 0.52517 4.76633 0.222056 4.24903 0.0839037 3.67757C -0.0542483 3.10611 -0.02123 2.50617 0.178781 1.95364C 0.378793 1.4011 0.736809 0.920817 1.20754 0.573538C 1.67826 0.226259 2.24055 0.0275919 2.82326 0.00267229C 3.60389 -0.0307115 4.36573 0.249789 4.94142 0.782551C 5.51711 1.31531 5.85956 2.05676 5.89353 2.844Z"/>
<path id="path8_fill" d="M 18.2646 7.13411C 10.4145 7.13411 3.55872 4.2576 0 0C 1.32539 3.8204 3.79556 7.13081 7.0686 9.47303C 10.3417 11.8152 14.2557 13.0734 18.269 13.0734C 22.2823 13.0734 26.1963 11.8152 29.4694 9.47303C 32.7424 7.13081 35.2126 3.8204 36.538 0C 32.9705 4.2576 26.1148 7.13411 18.2646 7.13411Z"/>
<path id="path9_fill" d="M 18.2733 5.93931C 26.1235 5.93931 32.9793 8.81583 36.538 13.0734C 35.2126 9.25303 32.7424 5.94262 29.4694 3.6004C 26.1963 1.25818 22.2823 0 18.269 0C 14.2557 0 10.3417 1.25818 7.0686 3.6004C 3.79556 5.94262 1.32539 9.25303 0 13.0734C 3.56745 8.82463 10.4232 5.93931 18.2733 5.93931Z"/>
<path id="path10_fill" d="M 7.42789 3.58338C 7.46008 4.3243 7.27355 5.05819 6.89193 5.69213C 6.51031 6.32607 5.95075 6.83156 5.28411 7.1446C 4.61747 7.45763 3.87371 7.56414 3.14702 7.45063C 2.42032 7.33712 1.74336 7.0087 1.20184 6.50695C 0.660328 6.0052 0.27861 5.35268 0.105017 4.63202C -0.0685757 3.91135 -0.0262361 3.15494 0.226675 2.45856C 0.479587 1.76217 0.931697 1.15713 1.52576 0.720033C 2.11983 0.282935 2.82914 0.0334395 3.56389 0.00313344C 4.54667 -0.0374033 5.50529 0.316706 6.22961 0.987835C 6.95393 1.65896 7.38484 2.59235 7.42789 3.58338L 7.42789 3.58338Z"/>
<path id="path11_fill" d="M 2.27471 4.39629C 1.84363 4.41508 1.41671 4.30445 1.04799 4.07843C 0.679268 3.8524 0.385328 3.52114 0.203371 3.12656C 0.0214136 2.73198 -0.0403798 2.29183 0.0258116 1.86181C 0.0920031 1.4318 0.283204 1.03126 0.575213 0.710883C 0.867222 0.39051 1.24691 0.164708 1.66622 0.0620592C 2.08553 -0.0405897 2.52561 -0.0154714 2.93076 0.134235C 3.33591 0.283941 3.68792 0.551505 3.94222 0.90306C 4.19652 1.25462 4.34169 1.67436 4.35935 2.10916C 4.38299 2.69107 4.17678 3.25869 3.78597 3.68746C 3.39516 4.11624 2.85166 4.37116 2.27471 4.39629L 2.27471 4.39629Z"/>
</defs>
</svg>

<svg width="189" height="51" version="2.0" viewBox="0 0 189 51" xmlns="http://www.w3.org/2000/svg" xmlns:cc="http://creativecommons.org/ns#" xmlns:dc="http://purl.org/dc/elements/1.1/" xmlns:figma="http://www.figma.com/figma/ns" xmlns:rdf="http://www.w3.org/1999/02/22-rdf-syntax-ns#" xmlns:xlink="http://www.w3.org/1999/xlink">
 <metadata>
  <rdf:RDF>
   <cc:Work rdf:about="">
    <dc:format>image/svg+xml</dc:format>
    <dc:type rdf:resource="http://purl.org/dc/dcmitype/StillImage"/>
    <dc:title>logo.svg</dc:title>
   </cc:Work>
  </rdf:RDF>
 </metadata>
 <title>logo.svg</title>
 <desc>Created using Figma 0.90</desc>
 <g id="Canvas" transform="translate(-1638 -2093)" figma:type="canvas" class="jp-icon3" fill="#616161">
  <g id="logo" style="mix-blend-mode:normal" figma:type="group">
   <g id="Group" style="mix-blend-mode:normal" figma:type="group">
    <g id="g" style="mix-blend-mode:normal" figma:type="group">
     <g id="path" style="mix-blend-mode:normal" figma:type="group">
      <g id="path0 fill" style="mix-blend-mode:normal" figma:type="vector">
       <use transform="translate(1688.9 2106.2)" style="mix-blend-mode:normal" xlink:href="#path0_fill"/>
      </g>
     </g>
     <g style="mix-blend-mode:normal" figma:type="group">
      <g id="path1 fill" style="mix-blend-mode:normal" figma:type="vector">
       <use transform="translate(1705.4 2106.2)" style="mix-blend-mode:normal" xlink:href="#path1_fill"/>
      </g>
     </g>
     <g style="mix-blend-mode:normal" figma:type="group">
      <g id="path2 fill" style="mix-blend-mode:normal" figma:type="vector">
       <use transform="translate(1730.2 2105.7)" style="mix-blend-mode:normal" xlink:href="#path2_fill"/>
      </g>
     </g>
     <g style="mix-blend-mode:normal" figma:type="group">
      <g id="path3 fill" style="mix-blend-mode:normal" figma:type="vector">
       <use transform="translate(1752.9 2106.2)" style="mix-blend-mode:normal" xlink:href="#path3_fill"/>
      </g>
     </g>
     <g style="mix-blend-mode:normal" figma:type="group">
      <g id="path4 fill" style="mix-blend-mode:normal" figma:type="vector">
       <use transform="translate(1775.8 2100)" style="mix-blend-mode:normal" xlink:href="#path4_fill"/>
      </g>
     </g>
     <g style="mix-blend-mode:normal" figma:type="group">
      <g id="path5 fill" style="mix-blend-mode:normal" figma:type="vector">
       <use transform="translate(1791.8 2105.7)" style="mix-blend-mode:normal" xlink:href="#path5_fill"/>
      </g>
     </g>
     <g style="mix-blend-mode:normal" figma:type="group">
      <g id="path6 fill" style="mix-blend-mode:normal" figma:type="vector">
       <use transform="translate(1815.8 2105.7)" style="mix-blend-mode:normal" xlink:href="#path6_fill"/>
      </g>
     </g>
    </g>
   </g>
   <g style="mix-blend-mode:normal" figma:type="group">
    <g style="mix-blend-mode:normal" figma:type="group">
     <g id="path7 fill" style="mix-blend-mode:normal" figma:type="vector">
      <use transform="translate(1669.3 2093.3)" fill="#767677" style="mix-blend-mode:normal" xlink:href="#path7_fill"/>
     </g>
    </g>
    <g style="mix-blend-mode:normal" figma:type="group">
     <g id="path8 fill" style="mix-blend-mode:normal" figma:type="vector">
      <use transform="translate(1639.7 2124)" fill="#F37726" style="mix-blend-mode:normal" xlink:href="#path8_fill"/>
     </g>
    </g>
    <g style="mix-blend-mode:normal" figma:type="group">
     <g id="path9 fill" style="mix-blend-mode:normal" figma:type="vector">
      <use transform="translate(1639.7 2097.5)" fill="#F37726" style="mix-blend-mode:normal" xlink:href="#path9_fill"/>
     </g>
    </g>
    <g style="mix-blend-mode:normal" figma:type="group">
     <g id="path10 fill" style="mix-blend-mode:normal" figma:type="vector">
      <use transform="translate(1639.8 2135.8)" fill="#989798" style="mix-blend-mode:normal" xlink:href="#path10_fill"/>
     </g>
    </g>
    <g style="mix-blend-mode:normal" figma:type="group">
     <g id="path11 fill" style="mix-blend-mode:normal" figma:type="vector">
      <use transform="translate(1638.4 2098.1)" fill="#6F7070" style="mix-blend-mode:normal" xlink:href="#path11_fill"/>
     </g>
    </g>
   </g>
  </g>
 </g>
 <defs>
  <path id="path0_fill" d="m5.6259 17.928c0 5.1461-0.3925 6.8263-1.4392 8.0666-1.1426 1.0559-2.637 1.6399-4.1867 1.6362l0.39251 3.0612c2.402 0.0333 4.7305-0.8352 6.5331-2.4366 1.8753-1.9529 2.5295-4.6535 2.5295-8.7967v-19.458h-3.8378v17.954l0.00872-0.0264z"/>
  <path id="path1_fill" d="m17.741 15.623c0 2.2168 0 4.1696 0.1744 5.8498h-3.3581l-0.218-3.5187h-0.0873c-0.7069 1.2298-1.7261 2.2473-2.9526 2.9477-1.2265 0.7005-2.6159 1.0585-4.0252 1.0372-3.3145 0-7.2744-1.8649-7.2744-9.3948v-12.544h3.8378v11.902c0 4.0817 1.2211 6.8262 4.7014 6.8262 1.0917-0.0201 2.1533-0.3647 3.0516-0.9907 0.8984-0.6259 1.5936-1.5053 1.9986-2.5279 0.2328-0.6395 0.351-1.3157 0.3489-1.9969v-13.195h3.8379v15.605h-0.0349z"/>
  <path id="path2_fill" d="m0.17445 7.5363c0-2.7446-0.087223-4.9613-0.17445-7.0374h3.4453l0.17445 3.677h0.08722c0.75374-1.3174 1.85-2.4022 3.1705-3.137 1.3205-0.73485 2.8149-1.0919 4.322-1.0326 5.0939 0 8.9317 4.3983 8.9317 10.908 0 7.7147-4.6141 11.524-9.5946 11.524-1.2785 0.0541-2.5489-0.2281-3.6867-0.8187-1.1377-0.5907-2.1036-1.4696-2.8028-2.5504h-0.08723v11.656h-3.7942v-23.223l0.008722 0.03519zm3.7942 5.7179c0.01001 0.5349 0.0684 1.0679 0.17444 1.5922 0.31262 1.3003 1.0491 2.4571 2.0914 3.2849 1.0423 0.8279 2.33 1.2788 3.6567 1.2805 4.0559 0 6.4022-3.3691 6.4022-8.2864 0-4.3016-2.2242-7.9786-6.2714-7.9786-1.3611 0.03841-2.6704 0.53457-3.7198 1.4096-1.0494 0.87505-1.7786 2.0788-2.0718 3.4198-0.15373 0.51742-0.24166 1.0524-0.26167 1.5922v3.677 0.0088z"/>
  <path id="path3_fill" d="m4.1606 0 4.6141 12.676c0.47973 1.4163 1.0031 3.1053 1.352 4.3984h0.0872c0.3925-1.2843 0.8286-2.9293 1.352-4.4775l4.1867-12.588h4.0559l-5.7481 15.297c-2.7475 7.3541-4.6141 11.128-7.2308 13.433-1.3222 1.2403-2.9429 2.1106-4.7014 2.5246l-0.95946-3.2811c1.2303-0.4134 2.3704-1.0615 3.3581-1.9089 1.3957-1.1762 2.5006-2.664 3.2273-4.3456 0.15514-0.2904 0.25848-0.606 0.30528-0.9324-0.03445-0.3518-0.12272-0.696-0.26167-1.0205l-7.7978-19.766h4.1867l-0.02616-0.0087967z"/>
  <path id="path4_fill" d="m7.0215 0v6.1577h5.4864v2.9733h-5.4864v11.559c0 2.639 0.7414 4.1696 2.8784 4.1696 0.74972 0.0118 1.4976-0.077 2.2242-0.2639l0.1744 2.9293c-1.0915 0.3877-2.2451 0.5667-3.4017 0.5278-0.76701 0.0474-1.535-0.0744-2.2506-0.357-0.71554-0.2826-1.3614-0.7191-1.8925-1.2792-1.0903-1.1523-1.4828-3.0612-1.4828-5.5858v-11.7h-3.2709v-2.9733h3.2709v-5.1461l3.7506-1.0116z"/>
  <path id="path5_fill" d="m3.6285 11.928c0.08723 5.278 3.4017 7.4508 7.2308 7.4508 2.0019 0.0634 3.9934-0.3149 5.8353-1.1084l0.6542 2.7886c-2.2069 0.9347-4.585 1.3874-6.9779 1.3283-6.4894 0-10.371-4.3456-10.371-10.82 0-6.4743 3.7506-11.568 9.8912-11.568 6.8819 0 8.7223 6.1577 8.7223 10.107-0.0065 0.6091-0.0501 1.2172-0.1308 1.8209h-14.828-0.02617zm11.243-2.7885c0.0436-2.4807-1.003-6.3424-5.3119-6.3424-3.8814 0-5.5736 3.633-5.8789 6.3424h11.199-0.0087z"/>
  <path id="path6_fill" d="m0.17445 7.1785c0-2.5246-0.043612-4.6974-0.17445-6.6943h3.3581l0.13083 4.2136h0.17445c0.95946-2.8853 3.2709-4.6974 5.8353-4.6974 0.36765-0.0054214 0.73435 0.038958 1.0902 0.13195v3.677c-0.4296-0.09447-0.86861-0.13874-1.3083-0.13195-2.7039 0-4.6141 2.0848-5.1375 5.0053-0.10796 0.60107-0.16631 1.2101-0.17445 1.8209v11.436h-3.7942v-14.761z"/>
  <path id="path7_fill" d="m5.8935 2.844c0.02536 0.58765-0.12268 1.1697-0.42538 1.6724-0.3027 0.50277-0.74647 0.9037-1.2752 1.1521-0.52869 0.24837-1.1186 0.333-1.6949 0.2432-0.57639-0.08981-1.1134-0.35001-1.5432-0.7477-0.42973-0.39768-0.73284-0.91498-0.87099-1.4864-0.13815-0.57146-0.10513-1.1714 0.094877-1.7239 0.20001-0.55254 0.55803-1.0328 1.0288-1.3801 0.47072-0.34728 1.033-0.54595 1.6157-0.57087 0.78063-0.033384 1.5425 0.24712 2.1182 0.77988 0.57569 0.53276 0.91814 1.2742 0.95211 2.0614z"/>
  <path id="path8_fill" d="m18.265 7.1341c-7.8501 0-14.706-2.8765-18.265-7.1341 1.3254 3.8204 3.7956 7.1308 7.0686 9.473 3.2731 2.3422 7.1871 3.6004 11.2 3.6004s7.9273-1.2582 11.2-3.6004c3.273-2.3422 5.7432-5.6526 7.0686-9.473-3.5675 4.2576-10.423 7.1341-18.273 7.1341z"/>
  <path id="path9_fill" d="m18.273 5.9393c7.8502 0 14.706 2.8765 18.265 7.1341-1.3254-3.8204-3.7956-7.1308-7.0686-9.473-3.2731-2.3422-7.1871-3.6004-11.2-3.6004s-7.9273 1.2582-11.2 3.6004c-3.273 2.3422-5.7432 5.6526-7.0686 9.473 3.5674-4.2488 10.423-7.1341 18.273-7.1341z"/>
  <path id="path10_fill" d="m7.4279 3.5834c0.03219 0.74092-0.15434 1.4748-0.53596 2.1088s-0.94118 1.1394-1.6078 1.4525c-0.66664 0.31303-1.4104 0.41954-2.1371 0.30603-0.7267-0.11351-1.4037-0.44193-1.9452-0.94368-0.54151-0.50175-0.92323-1.1543-1.0968-1.8749-0.17359-0.72067-0.13125-1.4771 0.12166-2.1735 0.25291-0.69639 0.70502-1.3014 1.2991-1.7385 0.59407-0.4371 1.3034-0.68659 2.0381-0.7169 0.98278-0.040537 1.9414 0.31357 2.6657 0.9847 0.72432 0.67112 1.1552 1.6045 1.1983 2.5955z"/>
  <path id="path11_fill" d="m2.2747 4.3963c-0.43108 0.01879-0.858-0.09184-1.2267-0.31786-0.36872-0.22603-0.66266-0.55729-0.84462-0.95187-0.18196-0.39458-0.24375-0.83473-0.17756-1.2648 0.066192-0.43001 0.25739-0.83055 0.5494-1.1509 0.29201-0.32037 0.6717-0.54618 1.091-0.64882 0.41931-0.10265 0.85939-0.077531 1.2645 0.072176 0.40515 0.14971 0.75716 0.41727 1.0115 0.76882 0.2543 0.35156 0.39947 0.7713 0.41713 1.2061 0.02364 0.58191-0.18257 1.1495-0.57338 1.5783-0.39081 0.42878-0.93431 0.6837-1.5113 0.70883z"/>
 </defs>
</svg>
